icons/cloud-person.svg

<svg xmlns="http://www.w3.org/2000/svg" width="24" height="24" viewBox="0 0 24 24">
  <path d="M12.5,3 C16.918278,3 20.5,6.581722 20.5,11 C20.5,11.1204206 20.4973322,11.2405319 20.4920144,11.3602705 L20.4920144,11.3602705 L20.472,11.654 L20.5287365,11.6859719 C21.9683651,12.5292172 22.9183208,14.0574067 22.9949844,15.7749408 L22.9949844,15.7749408 L23,16 C23,18.6686219 20.9044736,20.8633628 18.2241536,20.9948042 L18.2241536,20.9948042 L18,21 L6.5,21 C6.38859112,21 6.28147754,20.9817932 6.18145173,20.9482064 L6.18145173,20.9482064 L6.166,20.942 L5.94889404,20.9081606 C3.19270368,20.4215684 1.11197825,18.064907 1.0043751,15.2308104 L1.0043751,15.2308104 L1,15 C1,12.5890868 2.43448394,10.4577805 4.56984355,9.51249345 L4.56984355,9.51249345 L4.646,9.48 L4.66919046,9.36089212 C5.4117318,5.78500472 8.52762508,3.12063681 12.2455902,3.00398632 L12.2455902,3.00398632 Z M13,14 L11,14 L10.8151403,14.0049586 C9.41840278,14.0804956 8.5,15.0076133 8.5,16 C8.5,16.5 8.5,17 9.5,17 L9.5,17 L14.5,17 L14.6575789,16.9954561 C15.5,16.9444444 15.5,16.4722222 15.5,16 C15.5,14.9644661 14.5,14 13,14 L13,14 Z M12,9 C10.8954305,9 10,9.8954305 10,11 C10,12.1045695 10.8954305,13 12,13 C13.1045695,13 14,12.1045695 14,11 C14,9.8954305 13.1045695,9 12,9 Z"/>
</svg>

<svg xmlns="http://www.w3.org/2000/svg" viewBox="0 0 24 24">
  <path d="M12.5 3a8 8 0 0 1 8 8.36l-.03.3.06.03a5 5 0 0 1 2.46 4.08L23 16a5 5 0 0 1-4.78 5H6.5a1 1 0 0 1-.32-.05h-.01l-.22-.04A6 6 0 0 1 1 15.23V15a6 6 0 0 1 3.57-5.49l.08-.03.02-.12A8 8 0 0 1 12.25 3zm.5 11h-2.18c-1.4.08-2.32 1-2.32 2 0 .5 0 1 1 1h5.16c.84-.06.84-.53.84-1 0-1.04-1-2-2.5-2zm-1-5a2 2 0 1 0 0 4 2 2 0 0 0 0-4z"/>
</svg>
